images/11948723.svg

<?xml version="1.0" encoding="UTF-8"?>
<svg xmlns="http://www.w3.org/2000/svg" xmlns:xlink="http://www.w3.org/1999/xlink" width="300pt" height="300pt" viewBox="0 0 300 300" version="1.1">
<defs>
<g>
<symbol overflow="visible" id="glyph0-0">
<path style="stroke:none;" d="M 0.546875 1.9375 L 0.546875 -7.75 L 6.046875 -7.75 L 6.046875 1.9375 Z M 1.171875 1.328125 L 5.4375 1.328125 L 5.4375 -7.140625 L 1.171875 -7.140625 Z M 1.171875 1.328125 "/>
</symbol>
<symbol overflow="visible" id="glyph0-1">
<path style="stroke:none;" d="M 1.078125 -8.015625 L 2.546875 -8.015625 L 6.09375 -1.3125 L 6.09375 -8.015625 L 7.15625 -8.015625 L 7.15625 0 L 5.6875 0 L 2.125 -6.703125 L 2.125 0 L 1.078125 0 Z M 1.078125 -8.015625 "/>
</symbol>
<symbol overflow="visible" id="glyph0-2">
<path style="stroke:none;" d="M 4.328125 -7.28125 C 3.546875 -7.28125 2.921875 -6.984375 2.453125 -6.390625 C 1.992188 -5.804688 1.765625 -5.007812 1.765625 -4 C 1.765625 -2.988281 1.992188 -2.1875 2.453125 -1.59375 C 2.921875 -1.007812 3.546875 -0.71875 4.328125 -0.71875 C 5.117188 -0.71875 5.742188 -1.007812 6.203125 -1.59375 C 6.660156 -2.1875 6.890625 -2.988281 6.890625 -4 C 6.890625 -5.007812 6.660156 -5.804688 6.203125 -6.390625 C 5.742188 -6.984375 5.117188 -7.28125 4.328125 -7.28125 Z M 4.328125 -8.171875 C 5.453125 -8.171875 6.351562 -7.789062 7.03125 -7.03125 C 7.707031 -6.28125 8.046875 -5.269531 8.046875 -4 C 8.046875 -2.738281 7.707031 -1.726562 7.03125 -0.96875 C 6.351562 -0.21875 5.453125 0.15625 4.328125 0.15625 C 3.203125 0.15625 2.300781 -0.21875 1.625 -0.96875 C 0.957031 -1.71875 0.625 -2.726562 0.625 -4 C 0.625 -5.269531 0.957031 -6.28125 1.625 -7.03125 C 2.300781 -7.789062 3.203125 -8.171875 4.328125 -8.171875 Z M 4.328125 -8.171875 "/>
</symbol>
<symbol overflow="visible" id="glyph0-3">
<path style="stroke:none;" d="M 1.078125 -8.015625 L 2.171875 -8.015625 L 2.171875 -4.734375 L 6.109375 -4.734375 L 6.109375 -8.015625 L 7.1875 -8.015625 L 7.1875 0 L 6.109375 0 L 6.109375 -3.8125 L 2.171875 -3.8125 L 2.171875 0 L 1.078125 0 Z M 1.078125 -8.015625 "/>
</symbol>
</g>
</defs>
<g id="surface40229">
<rect x="0" y="0" width="300" height="300" style="fill:rgb(100%,100%,100%);fill-opacity:1;stroke:none;"/>
<path style=" stroke:none;fill-rule:nonzero;fill:rgb(0%,0%,0%);fill-opacity:1;" d="M 114.84375 83.367188 L 128.585938 59.730469 L 119.667969 56.453125 Z M 114.84375 83.367188 "/>
<path style="fill:none;stroke-width:1.2;stroke-linecap:butt;stroke-linejoin:miter;stroke:rgb(0%,0%,0%);stroke-opacity:1;stroke-miterlimit:10;" d="M 114.84375 83.367188 L 88.3125 87.96875 "/>
<path style="fill:none;stroke-width:1.2;stroke-linecap:butt;stroke-linejoin:miter;stroke:rgb(0%,0%,0%);stroke-opacity:1;stroke-miterlimit:10;" d="M 132.09375 104.046875 L 114.84375 83.367188 "/>
<path style="fill:none;stroke-width:1.2;stroke-linecap:butt;stroke-linejoin:miter;stroke:rgb(0%,0%,0%);stroke-opacity:1;stroke-miterlimit:10;" d="M 88.3125 87.96875 L 79.03125 113.246094 "/>
<path style=" stroke:none;fill-rule:nonzero;fill:rgb(0%,0%,0%);fill-opacity:1;" d="M 88.3125 87.96875 L 74.714844 64.246094 L 67.414062 70.335938 Z M 88.3125 87.96875 "/>
<path style="fill:none;stroke-width:1.2;stroke-linecap:butt;stroke-linejoin:miter;stroke:rgb(0%,0%,0%);stroke-opacity:1;stroke-miterlimit:10;" d="M 79.03125 113.246094 L 96.277344 133.921875 "/>
<path style=" stroke:none;fill-rule:nonzero;fill:rgb(0%,0%,0%);fill-opacity:1;" d="M 79.03125 113.246094 L 51.6875 113.160156 L 53.308594 122.527344 Z M 79.03125 113.246094 "/>
<path style="fill:none;stroke-width:1;stroke-linecap:butt;stroke-linejoin:miter;stroke:rgb(0%,0%,0%);stroke-opacity:1;stroke-miterlimit:10;" d="M 96.277344 133.921875 L 96.277344 133.921875 M 94.769531 136.515625 L 95.75 136.875 M 93.261719 139.109375 L 95.222656 139.828125 M 91.753906 141.703125 L 94.691406 142.78125 M 90.246094 144.296875 L 94.164062 145.734375 M 88.738281 146.890625 L 93.632812 148.6875 M 87.230469 149.484375 L 93.105469 151.640625 M 85.722656 152.078125 L 92.574219 154.59375 M 84.214844 154.671875 L 92.046875 157.546875 M 82.707031 157.261719 L 91.515625 160.5 M 82.535156 157.558594 L 91.457031 160.835938 "/>
<path style="fill:none;stroke-width:1.2;stroke-linecap:butt;stroke-linejoin:miter;stroke:rgb(0%,0%,0%);stroke-opacity:1;stroke-miterlimit:10;" d="M 122.808594 129.324219 L 96.277344 133.921875 "/>
<path style="fill:none;stroke-width:1.2;stroke-linecap:butt;stroke-linejoin:miter;stroke:rgb(0%,0%,0%);stroke-opacity:1;stroke-miterlimit:10;" d="M 86.996094 159.199219 L 104.246094 179.875 "/>
<path style=" stroke:none;fill-rule:nonzero;fill:rgb(0%,0%,0%);fill-opacity:1;" d="M 130.777344 175.277344 L 103.433594 175.195312 L 105.054688 184.558594 Z M 130.777344 175.277344 "/>
<path style="fill:none;stroke-width:1.2;stroke-linecap:butt;stroke-linejoin:miter;stroke:rgb(0%,0%,0%);stroke-opacity:1;stroke-miterlimit:10;" d="M 130.777344 175.277344 L 140.058594 150 "/>
<path style="fill:none;stroke-width:1.2;stroke-linecap:butt;stroke-linejoin:miter;stroke:rgb(0%,0%,0%);stroke-opacity:1;stroke-miterlimit:10;" d="M 148.023438 195.953125 L 130.777344 175.277344 "/>
<path style=" stroke:none;fill-rule:nonzero;fill:rgb(0%,0%,0%);fill-opacity:1;" d="M 140.058594 150 L 126.460938 126.277344 L 119.160156 132.367188 Z M 140.058594 150 "/>
<path style="fill:none;stroke-width:1.2;stroke-linecap:butt;stroke-linejoin:miter;stroke:rgb(0%,0%,0%);stroke-opacity:1;stroke-miterlimit:10;" d="M 166.589844 145.402344 L 140.058594 150 "/>
<path style="fill:none;stroke-width:1.2;stroke-linecap:butt;stroke-linejoin:miter;stroke:rgb(0%,0%,0%);stroke-opacity:1;stroke-miterlimit:10;" d="M 122.808594 129.324219 L 132.09375 104.046875 "/>
<path style="fill:none;stroke-width:1.2;stroke-linecap:butt;stroke-linejoin:miter;stroke:rgb(0%,0%,0%);stroke-opacity:1;stroke-miterlimit:10;" d="M 117.792969 124.609375 L 125.21875 104.390625 "/>
<path style="fill:none;stroke-width:1.2;stroke-linecap:butt;stroke-linejoin:miter;stroke:rgb(0%,0%,0%);stroke-opacity:1;stroke-miterlimit:10;" d="M 132.09375 104.046875 L 158.625 99.445312 "/>
<path style="fill:none;stroke-width:1.2;stroke-linecap:butt;stroke-linejoin:miter;stroke:rgb(0%,0%,0%);stroke-opacity:1;stroke-miterlimit:10;" d="M 158.625 99.445312 L 167.25 109.785156 "/>
<path style="fill:none;stroke-width:1.2;stroke-linecap:butt;stroke-linejoin:miter;stroke:rgb(0%,0%,100%);stroke-opacity:1;stroke-miterlimit:10;" d="M 167.25 109.785156 L 175.875 120.125 "/>
<path style="fill:none;stroke-width:1.2;stroke-linecap:butt;stroke-linejoin:miter;stroke:rgb(0%,0%,100%);stroke-opacity:1;stroke-miterlimit:10;" d="M 175.875 120.125 L 171.230469 132.761719 "/>
<path style="fill:none;stroke-width:1.2;stroke-linecap:butt;stroke-linejoin:miter;stroke:rgb(0%,0%,0%);stroke-opacity:1;stroke-miterlimit:10;" d="M 171.230469 132.761719 L 166.589844 145.402344 "/>
<path style="fill:none;stroke-width:1.2;stroke-linecap:butt;stroke-linejoin:miter;stroke:rgb(0%,0%,100%);stroke-opacity:1;stroke-miterlimit:10;" d="M 175.875 120.125 L 189.140625 117.824219 "/>
<path style="fill:none;stroke-width:1.2;stroke-linecap:butt;stroke-linejoin:miter;stroke:rgb(0%,0%,0%);stroke-opacity:1;stroke-miterlimit:10;" d="M 189.140625 117.824219 L 202.40625 115.523438 "/>
<path style=" stroke:none;fill-rule:nonzero;fill:rgb(100%,100%,100%);fill-opacity:1;" d="M 171.875 113.625 L 179.875 113.625 L 179.875 126.625 L 171.875 126.625 Z M 171.875 113.625 "/>
<g style="fill:rgb(0%,0%,100%);fill-opacity:1;">
  <use xlink:href="#glyph0-1" x="171.875" y="123.526367"/>
</g>
<path style="fill:none;stroke-width:1.2;stroke-linecap:butt;stroke-linejoin:miter;stroke:rgb(0%,0%,0%);stroke-opacity:1;stroke-miterlimit:10;" d="M 166.589844 145.402344 L 183.839844 166.078125 "/>
<path style="fill:none;stroke-width:1;stroke-linecap:butt;stroke-linejoin:miter;stroke:rgb(0%,0%,0%);stroke-opacity:1;stroke-miterlimit:10;" d="M 166.589844 145.402344 L 166.589844 145.402344 M 167.835938 142.671875 L 165.957031 142.46875 M 169.082031 139.941406 L 165.320312 139.535156 M 170.328125 137.214844 L 164.6875 136.605469 M 171.574219 134.484375 L 164.054688 133.671875 M 172.820312 131.753906 L 163.417969 130.738281 M 172.851562 131.683594 L 163.402344 130.664062 "/>
<path style="fill:none;stroke-width:1.2;stroke-linecap:butt;stroke-linejoin:miter;stroke:rgb(0%,0%,0%);stroke-opacity:1;stroke-miterlimit:10;" d="M 183.839844 166.078125 L 179.199219 178.714844 "/>
<path style="fill:none;stroke-width:1.2;stroke-linecap:butt;stroke-linejoin:miter;stroke:rgb(100%,0%,0%);stroke-opacity:1;stroke-miterlimit:10;" d="M 179.199219 178.714844 L 174.554688 191.355469 "/>
<path style="fill:none;stroke-width:1.2;stroke-linecap:butt;stroke-linejoin:miter;stroke:rgb(100%,0%,0%);stroke-opacity:1;stroke-miterlimit:10;" d="M 174.554688 191.355469 L 161.289062 193.652344 "/>
<path style="fill:none;stroke-width:1.2;stroke-linecap:butt;stroke-linejoin:miter;stroke:rgb(0%,0%,0%);stroke-opacity:1;stroke-miterlimit:10;" d="M 161.289062 193.652344 L 148.023438 195.953125 "/>
<path style=" stroke:none;fill-rule:nonzero;fill:rgb(100%,100%,100%);fill-opacity:1;" d="M 170.554688 184.855469 L 179.554688 184.855469 L 179.554688 197.855469 L 170.554688 197.855469 Z M 170.554688 184.855469 "/>
<g style="fill:rgb(100%,0%,0%);fill-opacity:1;">
  <use xlink:href="#glyph0-2" x="170.554688" y="194.756836"/>
</g>
<path style="fill:none;stroke-width:1;stroke-linecap:butt;stroke-linejoin:miter;stroke:rgb(0%,0%,0%);stroke-opacity:1;stroke-miterlimit:10;" d="M 148.023438 195.953125 L 148.023438 195.953125 M 146.515625 198.546875 L 147.496094 198.90625 M 145.007812 201.140625 L 146.96875 201.859375 M 143.5 203.734375 L 146.4375 204.8125 M 141.992188 206.328125 L 145.910156 207.765625 M 140.484375 208.921875 L 145.378906 210.71875 M 138.976562 211.515625 L 144.851562 213.671875 M 137.46875 214.109375 L 144.320312 216.625 M 135.960938 216.703125 L 143.792969 219.578125 M 134.453125 219.296875 L 143.261719 222.53125 M 134.28125 219.59375 L 143.203125 222.867188 "/>
<path style="fill:none;stroke-width:1.2;stroke-linecap:butt;stroke-linejoin:miter;stroke:rgb(100%,0%,0%);stroke-opacity:1;stroke-miterlimit:10;" d="M 138.742188 221.230469 L 147.367188 231.570312 "/>
<path style="fill:none;stroke-width:1.2;stroke-linecap:butt;stroke-linejoin:miter;stroke:rgb(0%,0%,0%);stroke-opacity:1;stroke-miterlimit:10;" d="M 147.367188 231.570312 L 155.992188 241.90625 "/>
<path style=" stroke:none;fill-rule:nonzero;fill:rgb(100%,100%,100%);fill-opacity:1;" d="M 134.742188 214.730469 L 143.742188 214.730469 L 143.742188 227.730469 L 134.742188 227.730469 Z M 134.742188 214.730469 "/>
<g style="fill:rgb(100%,0%,0%);fill-opacity:1;">
  <use xlink:href="#glyph0-2" x="134.742188" y="224.631836"/>
</g>
<path style="fill:none;stroke-width:1.2;stroke-linecap:butt;stroke-linejoin:miter;stroke:rgb(0%,0%,0%);stroke-opacity:1;stroke-miterlimit:10;" d="M 199.972656 117.554688 L 208.597656 127.894531 "/>
<path style="fill:none;stroke-width:1.2;stroke-linecap:butt;stroke-linejoin:miter;stroke:rgb(100%,0%,0%);stroke-opacity:1;stroke-miterlimit:10;" d="M 208.597656 127.894531 L 217.21875 138.230469 "/>
<path style="fill:none;stroke-width:1.2;stroke-linecap:butt;stroke-linejoin:miter;stroke:rgb(0%,0%,0%);stroke-opacity:1;stroke-miterlimit:10;" d="M 204.835938 113.496094 L 213.460938 123.835938 "/>
<path style="fill:none;stroke-width:1.2;stroke-linecap:butt;stroke-linejoin:miter;stroke:rgb(100%,0%,0%);stroke-opacity:1;stroke-miterlimit:10;" d="M 213.460938 123.835938 L 222.085938 134.171875 "/>
<path style="fill:none;stroke-width:1.2;stroke-linecap:butt;stroke-linejoin:miter;stroke:rgb(0%,0%,0%);stroke-opacity:1;stroke-miterlimit:10;" d="M 202.40625 115.523438 L 207.046875 102.886719 "/>
<path style="fill:none;stroke-width:1.2;stroke-linecap:butt;stroke-linejoin:miter;stroke:rgb(100%,0%,0%);stroke-opacity:1;stroke-miterlimit:10;" d="M 207.046875 102.886719 L 211.6875 90.25 "/>
<path style=" stroke:none;fill-rule:nonzero;fill:rgb(100%,100%,100%);fill-opacity:1;" d="M 215.652344 129.703125 L 224.652344 129.703125 L 224.652344 142.703125 L 215.652344 142.703125 Z M 215.652344 129.703125 "/>
<g style="fill:rgb(100%,0%,0%);fill-opacity:1;">
  <use xlink:href="#glyph0-2" x="215.652344" y="139.604492"/>
</g>
<path style="fill:none;stroke-width:1.2;stroke-linecap:butt;stroke-linejoin:miter;stroke:rgb(100%,0%,0%);stroke-opacity:1;stroke-miterlimit:10;" d="M 211.6875 90.25 L 224.953125 87.949219 "/>
<path style="fill:none;stroke-width:1.2;stroke-linecap:butt;stroke-linejoin:miter;stroke:rgb(0%,0%,0%);stroke-opacity:1;stroke-miterlimit:10;" d="M 224.953125 87.949219 L 238.21875 85.648438 "/>
<path style=" stroke:none;fill-rule:nonzero;fill:rgb(100%,100%,100%);fill-opacity:1;" d="M 207.6875 83.75 L 216.6875 83.75 L 216.6875 96.75 L 207.6875 96.75 Z M 207.6875 83.75 "/>
<g style="fill:rgb(100%,0%,0%);fill-opacity:1;">
  <use xlink:href="#glyph0-2" x="207.6875" y="93.651367"/>
</g>
<path style="fill:none;stroke-width:1.2;stroke-linecap:butt;stroke-linejoin:miter;stroke:rgb(0%,0%,0%);stroke-opacity:1;stroke-miterlimit:10;" d="M 238.21875 85.648438 L 233.621094 59.117188 "/>
<path style="fill:none;stroke-width:1.2;stroke-linecap:butt;stroke-linejoin:miter;stroke:rgb(0%,0%,0%);stroke-opacity:1;stroke-miterlimit:10;" d="M 238.21875 85.648438 L 242.816406 112.179688 "/>
<path style="fill:none;stroke-width:1.2;stroke-linecap:butt;stroke-linejoin:miter;stroke:rgb(0%,0%,0%);stroke-opacity:1;stroke-miterlimit:10;" d="M 238.21875 85.648438 L 264.75 81.050781 "/>
<path style="fill:none;stroke-width:1.2;stroke-linecap:butt;stroke-linejoin:miter;stroke:rgb(0%,0%,0%);stroke-opacity:1;stroke-miterlimit:10;" d="M 52.5 117.84375 L 43.875 107.503906 "/>
<path style="fill:none;stroke-width:1.2;stroke-linecap:butt;stroke-linejoin:miter;stroke:rgb(100%,0%,0%);stroke-opacity:1;stroke-miterlimit:10;" d="M 43.875 107.503906 L 35.25 97.167969 "/>
<path style=" stroke:none;fill-rule:nonzero;fill:rgb(100%,100%,100%);fill-opacity:1;" d="M 18.25 90.667969 L 35.25 90.667969 L 35.25 103.667969 L 18.25 103.667969 Z M 18.25 90.667969 "/>
<g style="fill:rgb(100%,0%,0%);fill-opacity:1;">
  <use xlink:href="#glyph0-3" x="18.25" y="100.569336"/>
  <use xlink:href="#glyph0-2" x="26.274414" y="100.569336"/>
</g>
<path style="fill:none;stroke-width:1.2;stroke-linecap:butt;stroke-linejoin:miter;stroke:rgb(0%,0%,0%);stroke-opacity:1;stroke-miterlimit:10;" d="M 71.0625 67.289062 L 57.796875 69.589844 "/>
<path style="fill:none;stroke-width:1.2;stroke-linecap:butt;stroke-linejoin:miter;stroke:rgb(100%,0%,0%);stroke-opacity:1;stroke-miterlimit:10;" d="M 57.796875 69.589844 L 44.53125 71.890625 "/>
<path style=" stroke:none;fill-rule:nonzero;fill:rgb(100%,100%,100%);fill-opacity:1;" d="M 27.53125 65.390625 L 44.53125 65.390625 L 44.53125 78.390625 L 27.53125 78.390625 Z M 27.53125 65.390625 "/>
<g style="fill:rgb(100%,0%,0%);fill-opacity:1;">
  <use xlink:href="#glyph0-3" x="27.53125" y="75.291992"/>
  <use xlink:href="#glyph0-2" x="35.555664" y="75.291992"/>
</g>
</g>
</svg>

<svg xmlns="http://www.w3.org/2000/svg" xmlns:xlink="http://www.w3.org/1999/xlink" width="300pt" height="300pt" viewBox="0 0 300 300"><defs><symbol overflow="visible"><path d="M.547 1.938V-7.75h5.5v9.688zm.625-.61h4.266v-8.47H1.171zm0 0"/></symbol><symbol overflow="visible" id="a"><path d="M1.078-8.016h1.47l3.546 6.704v-6.704h1.062V0H5.688L2.124-6.703V0H1.078zm0 0"/></symbol><symbol overflow="visible" id="b"><path d="M4.328-7.28c-.78 0-1.406.296-1.875.89-.46.585-.687 1.382-.687 2.39 0 1.012.226 1.813.687 2.406.47.586 1.094.875 1.875.875.79 0 1.414-.288 1.875-.874.457-.593.688-1.394.688-2.406 0-1.008-.23-1.805-.687-2.39-.46-.594-1.086-.89-1.875-.89zm0-.892c1.125 0 2.024.383 2.703 1.14C7.708-6.28 8.048-5.27 8.048-4c0 1.262-.34 2.273-1.016 3.03C6.353-.22 5.454.157 4.33.157S2.3-.22 1.625-.97c-.668-.75-1-1.757-1-3.03 0-1.27.332-2.28 1-3.03.676-.76 1.578-1.142 2.703-1.142zm0 0"/></symbol><symbol overflow="visible" id="c"><path d="M1.078-8.016h1.094v3.282H6.11v-3.282h1.077V0H6.11v-3.813H2.17V0H1.078zm0 0"/></symbol></defs><g><path fill="#fff" d="M0 0h300v300H0z"/><path d="M114.844 83.367l13.742-23.637-8.918-3.277zm0 0"/><path d="M114.844 83.367l-26.53 4.602M132.094 104.047l-17.25-20.68M88.313 87.97l-9.282 25.276" stroke-width="1.2" stroke="#000" stroke-miterlimit="10" fill="none"/><path d="M88.313 87.97L74.715 64.245l-7.3 6.09zm0 0"/><path d="M79.03 113.246l17.247 20.676" stroke-width="1.2" stroke="#000" stroke-miterlimit="10" fill="none"/><path d="M79.03 113.246l-27.343-.086 1.622 9.367zm0 0"/><path d="M96.277 133.922m-1.507 2.594l.98.36m-2.488 2.233l1.96.718m-3.468 1.875l2.937 1.078m-4.444 1.517l3.918 1.437m-5.426 1.157l4.895 1.798m-6.403.796l5.875 2.157m-7.382.438l6.85 2.516m-8.358.078l7.832 2.875m-9.34-.285l8.81 3.238m-8.982-2.94l8.922 3.276" stroke="#000" stroke-miterlimit="10" fill="none"/><path d="M122.81 129.324l-26.533 4.598M86.996 159.2l17.25 20.675" stroke-width="1.2" stroke="#000" stroke-miterlimit="10" fill="none"/><path d="M130.777 175.277l-27.343-.082 1.62 9.364zm0 0"/><path d="M130.777 175.277L140.06 150M148.023 195.953l-17.246-20.676" stroke-width="1.2" stroke="#000" stroke-miterlimit="10" fill="none"/><path d="M140.06 150l-13.6-23.723-7.3 6.09zm0 0"/><path d="M166.59 145.402L140.06 150M122.81 129.324l9.284-25.277M117.793 124.61l7.426-20.22M132.094 104.047l26.53-4.602M158.625 99.445l8.625 10.34" stroke-width="1.2" stroke="#000" stroke-miterlimit="10" fill="none"/><path d="M167.25 109.785l8.625 10.34M175.875 120.125l-4.645 12.637" stroke-width="1.2" stroke="#00f" stroke-miterlimit="10" fill="none"/><path d="M171.23 132.762l-4.64 12.64" stroke-width="1.2" stroke="#000" stroke-miterlimit="10" fill="none"/><path d="M175.875 120.125l13.266-2.3" stroke-width="1.2" stroke="#00f" stroke-miterlimit="10" fill="none"/><path d="M189.14 117.824l13.266-2.3" stroke-width="1.2" stroke="#000" stroke-miterlimit="10" fill="none"/><path d="M171.875 113.625h8v13h-8zm0 0" fill="#fff"/><use xlink:href="#a" x="171.875" y="123.526" fill="#00f"/><path d="M166.59 145.402l17.25 20.676" stroke-width="1.2" stroke="#000" stroke-miterlimit="10" fill="none"/><path d="M166.59 145.402m1.246-2.73l-1.88-.203m3.126-2.53l-3.762-.405m5.008-2.32l-5.64-.61m6.886-2.12l-7.52-.813m8.766-1.918l-9.402-1.016m9.434.946l-9.45-1.02" stroke="#000" stroke-miterlimit="10" fill="none"/><path d="M183.84 166.078l-4.64 12.637" stroke-width="1.2" stroke="#000" stroke-miterlimit="10" fill="none"/><path d="M179.2 178.715l-4.645 12.64M174.555 191.355l-13.266 2.297" stroke-width="1.2" stroke="#f00" stroke-miterlimit="10" fill="none"/><path d="M161.29 193.652l-13.267 2.3" stroke-width="1.2" stroke="#000" stroke-miterlimit="10" fill="none"/><path d="M170.555 184.855h9v13h-9zm0 0" fill="#fff"/><use xlink:href="#b" x="170.555" y="194.757" fill="#f00"/><path d="M148.023 195.953m-1.507 2.594l.98.36m-2.488 2.234l1.96.72m-3.468 1.874l2.938 1.078m-4.446 1.516l3.918 1.438m-5.426 1.156l4.895 1.797m-6.403.796l5.875 2.156m-7.383.437l6.85 2.515m-8.36.078l7.833 2.875m-9.34-.28l8.81 3.233m-8.982-2.936l8.923 3.273" stroke="#000" stroke-miterlimit="10" fill="none"/><path d="M138.742 221.23l8.625 10.34" stroke-width="1.2" stroke="#f00" stroke-miterlimit="10" fill="none"/><path d="M147.367 231.57l8.625 10.336" stroke-width="1.2" stroke="#000" stroke-miterlimit="10" fill="none"/><path d="M134.742 214.73h9v13h-9zm0 0" fill="#fff"/><use xlink:href="#b" x="134.742" y="224.632" fill="#f00"/><path d="M199.973 117.555l8.625 10.34" stroke-width="1.2" stroke="#000" stroke-miterlimit="10" fill="none"/><path d="M208.598 127.895l8.62 10.335" stroke-width="1.2" stroke="#f00" stroke-miterlimit="10" fill="none"/><path d="M204.836 113.496l8.625 10.34" stroke-width="1.2" stroke="#000" stroke-miterlimit="10" fill="none"/><path d="M213.46 123.836l8.626 10.336" stroke-width="1.2" stroke="#f00" stroke-miterlimit="10" fill="none"/><path d="M202.406 115.523l4.64-12.636" stroke-width="1.2" stroke="#000" stroke-miterlimit="10" fill="none"/><path d="M207.047 102.887l4.64-12.637" stroke-width="1.2" stroke="#f00" stroke-miterlimit="10" fill="none"/><path d="M215.652 129.703h9v13h-9zm0 0" fill="#fff"/><use xlink:href="#b" x="215.652" y="139.604" fill="#f00"/><path d="M211.688 90.25l13.265-2.3" stroke-width="1.2" stroke="#f00" stroke-miterlimit="10" fill="none"/><path d="M224.953 87.95l13.266-2.302" stroke-width="1.2" stroke="#000" stroke-miterlimit="10" fill="none"/><path d="M207.688 83.75h9v13h-9zm0 0" fill="#fff"/><use xlink:href="#b" x="207.688" y="93.651" fill="#f00"/><path d="M238.22 85.648l-4.6-26.53M238.22 85.648l4.596 26.532M238.22 85.648l26.53-4.597M52.5 117.844l-8.625-10.34" stroke-width="1.2" stroke="#000" stroke-miterlimit="10" fill="none"/><path d="M43.875 107.504L35.25 97.168" stroke-width="1.2" stroke="#f00" stroke-miterlimit="10" fill="none"/><path d="M18.25 90.668h17v13h-17zm0 0" fill="#fff"/><g fill="#f00"><use xlink:href="#c" x="18.25" y="100.569"/><use xlink:href="#b" x="26.274" y="100.569"/></g><path d="M71.063 67.29l-13.266 2.3" stroke-width="1.2" stroke="#000" stroke-miterlimit="10" fill="none"/><path d="M57.797 69.59l-13.266 2.3" stroke-width="1.2" stroke="#f00" stroke-miterlimit="10" fill="none"/><path d="M27.53 65.39h17v13h-17zm0 0" fill="#fff"/><g fill="#f00"><use xlink:href="#c" x="27.531" y="75.292"/><use xlink:href="#b" x="35.556" y="75.292"/></g></g></svg>
